svg/alphanum/m-square.svg

<svg width="448" height="512" viewBox="0 0 448 512" version="1.1" xmlns="http://www.w3.org/2000/svg"><path fill="currentColor" d="M400,480l-352,0c-26.51,0 -48,-21.49 -48,-48l0,-352c0,-26.51 21.49,-48 48,-48l352,0c26.51,0 48,21.49 48,48l0,352c0,26.51 -21.49,48 -48,48Zm-255.973,-352l-32.027,0c-8.837,0 -16,7.163 -16,16l0,224c0,8.837 7.163,16 16,16l32,0c8.837,0 16,-7.163 16,-16l0,-144l47.491,67.162c5.431,7.862 10.934,11.838 16.509,11.838c5.575,0 11.078,-3.976 16.509,-11.838l47.491,-67.162l0,144c0,8.837 7.163,16 16,16l32,0c8.837,0 16,-7.163 16,-16l0,-224c0,-8.837 -7.163,-16 -16,-16l-32.027,0c-1.858,0 -3.609,0.143 -5.253,0.429c-4.941,0.859 -10.245,3.368 -13.722,7.075c-5.339,5.694 -6.623,7.519 -26.419,35.66l-0.018,0.025c-4.561,6.484 -10.104,14.301 -16.905,23.891c-5.13,7.235 -10.976,15.478 -17.656,24.92c-6.677,-9.438 -12.521,-17.679 -17.65,-24.912c-6.807,-9.598 -12.353,-17.42 -16.917,-23.907l-0.012,-0.017c-19.796,-28.141 -21.08,-29.966 -26.419,-35.66c-3.477,-3.707 -8.781,-6.216 -13.722,-7.075c-1.644,-0.286 -3.395,-0.429 -5.253,-0.429Z"></path></svg>

<svg width="448" height="512" viewBox="0 0 448 512" fill="none" xmlns="http://www.w3.org/2000/svg">
<path fill-rule="evenodd" clip-rule="evenodd" d="M48 32C21.4903 32 0 53.4903 0 80V432C0 458.51 21.4903 480 48 480H400C426.51 480 448 458.51 448 432V80C448 53.4903 426.51 32 400 32H48ZM112 128C103.163 128 96 135.163 96 144V368C96 376.837 103.163 384 112 384H144C152.837 384 160 376.837 160 368V224L207.491 291.162C212.922 299.024 218.425 303 224 303C229.575 303 235.078 299.024 240.509 291.162L288 224V368C288 376.837 295.163 384 304 384H336C344.837 384 352 376.837 352 368V144C352 135.163 344.837 128 336 128L303.973 128C302.115 128 300.364 128.143 298.72 128.429C293.779 129.288 288.475 131.797 284.998 135.504C279.659 141.198 278.375 143.023 258.579 171.164L258.561 171.189C254 177.673 248.457 185.49 241.656 195.08C236.526 202.315 230.68 210.558 224 220C217.323 210.562 211.479 202.321 206.35 195.088C199.543 185.49 193.997 177.668 189.433 171.181L189.421 171.164C169.625 143.023 168.341 141.198 163.002 135.504C159.525 131.797 154.221 129.288 149.28 128.429C147.636 128.143 145.885 128 144.027 128L112 128Z" fill="black"/>
</svg>
